<?xml version="1.0" encoding="UTF-8"?>
<map version="1.10" tiledversion="1.11.2" orientation="orthogonal" renderorder="right-down" width="44" height="25" tilewidth="32" tileheight="32" infinite="0" nextlayerid="5" nextobjectid="1">
 <tileset firstgid="1" source="../../../forest.tsx"/>
 <layer id="1" name="main" width="44" height="25">
  <data encoding="csv">
4,2,2,2,4,2,3,4,4,4,3,2,2,3,3,4,3,2,2,2,3,4,3,2,4,4,3,4,4,2,4,2,2,3,4,4,4,3,2,2,3,4,4,2,
3,2,3,3,4,4,2,3,4,2,2,4,3,2,3,4,4,3,2,2,4,2,3,4,4,3,2,4,3,2,2,2,3,2,4,3,2,3,2,3,4,4,2,2,
3,4,3,2,2,2,3,2,2,3,2,3,2,4,4,4,3,2,3,2,2,2,3,2,2,2,4,2,3,4,4,2,4,3,3,3,4,2,3,2,4,4,2,4,
2,4,2,3,4,3,3,3,4,2,2,3,4,3,4,2,4,3,3,2,3,3,4,2,4,4,2,3,2,2,3,2,2,4,2,2,4,2,2,2,4,2,4,3,
3,2,3,2,2,4,3,3,3,2,3,3,4,4,3,3,2,3,4,2,4,3,2,4,4,4,2,4,4,2,2,4,3,2,4,2,2,3,3,3,4,4,4,2,
2,4,3,3,3,2,4,4,2,2,3,4,4,2,2,3,4,4,2,3,4,4,4,3,3,4,2,4,4,2,4,3,4,2,2,3,4,2,3,4,4,2,4,2,
4,2,3,2,2,4,3,2,3,4,3,2,4,2,3,2,3,2,3,4,3,4,4,4,3,2,4,3,2,4,2,4,2,3,3,2,4,4,3,3,2,2,2,4,
4,4,4,4,2,2,3,4,2,4,4,3,3,3,4,2,4,3,2,2,3,3,4,4,2,4,2,3,3,3,4,2,3,3,4,2,3,2,4,3,4,2,4,2,
2,3,3,3,3,4,2,2,2,2,3,2,4,4,3,3,4,4,4,3,3,3,4,2,3,4,4,4,4,4,4,3,4,4,4,3,3,4,4,3,3,2,4,3,
2,4,3,3,4,3,2,2,2,4,2,3,3,3,2,3,4,3,2,2,2,2,4,2,2,2,3,3,3,3,3,2,4,2,4,4,3,4,4,2,2,2,2,3,
3,4,4,2,3,2,4,3,4,2,2,3,4,2,2,4,3,3,4,2,2,4,2,3,4,3,4,4,4,3,4,3,3,3,2,3,3,2,3,4,2,4,2,4,
3,2,3,2,3,3,2,3,3,2,2,2,2,4,3,4,3,3,2,4,2,2,4,2,4,4,2,4,2,4,2,2,3,3,3,2,4,3,2,3,4,3,2,4,
4,4,4,2,4,3,2,2,3,3,3,2,2,4,2,3,3,2,4,4,3,2,3,3,3,4,4,2,2,3,2,4,4,2,3,2,3,4,4,2,4,4,2,3,
4,4,4,2,4,3,3,3,3,2,3,4,4,3,2,4,4,4,4,4,4,4,3,4,4,2,3,4,2,2,4,4,3,3,2,4,3,2,3,4,2,2,4,2,
4,3,4,3,4,2,4,4,3,2,4,4,4,3,3,2,4,4,4,3,4,2,2,4,4,3,3,3,3,2,2,2,3,2,3,2,2,3,2,3,3,3,3,3,
3,4,2,3,2,3,3,2,3,4,4,3,4,3,3,2,2,3,3,2,3,4,3,2,4,4,4,2,4,2,3,4,3,3,4,2,2,4,2,3,3,2,4,4,
3,3,3,3,3,2,4,3,2,2,4,4,4,2,3,2,2,2,2,2,2,3,3,2,2,2,3,2,3,3,3,3,2,4,3,2,3,4,3,4,4,2,3,2,
4,4,2,3,2,4,4,4,2,4,3,3,3,2,3,4,4,3,2,4,2,2,4,3,4,2,3,2,3,3,2,2,4,2,3,3,2,3,3,4,2,2,3,3,
3,4,2,2,4,2,2,4,4,3,4,3,4,4,3,2,3,2,2,3,4,4,3,4,4,2,3,2,4,3,3,3,3,4,3,4,4,2,2,3,3,3,4,3,
4,4,3,3,3,4,2,3,4,3,2,3,4,4,3,2,3,2,2,4,4,4,3,3,4,2,3,2,3,2,3,2,4,4,3,4,2,4,4,2,4,2,2,3,
4,3,2,2,3,3,4,2,4,3,2,4,2,3,4,2,4,4,3,2,4,4,3,2,3,3,3,3,4,4,2,2,3,3,3,3,2,4,3,3,2,4,4,4,
3,3,4,3,3,3,3,2,4,2,3,2,4,2,3,4,3,4,3,3,2,3,2,2,4,4,2,3,3,4,4,4,4,4,2,3,2,3,2,3,4,4,3,2,
3,3,4,3,2,3,3,2,3,3,3,3,2,3,4,4,3,3,2,2,3,2,2,2,4,2,3,3,3,4,4,4,3,4,2,4,2,3,3,2,3,3,2,4,
3,2,2,3,3,2,3,3,3,3,3,4,2,3,3,3,2,2,3,3,3,3,2,3,2,2,3,2,2,4,3,2,4,3,4,3,2,2,3,3,3,2,3,4,
4,3,3,2,2,3,2,3,2,2,3,3,2,2,2,3,3,4,2,4,2,4,2,2,3,2,2,4,3,3,2,2,2,2,2,2,3,2,3,3,2,3,3,4
</data>
 </layer>
 <layer id="3" name="mid" width="44" height="25">
  <data encoding="csv">
1,5,5,5,1,1,1,1,1,1,5,5,1,5,5,5,1,5,5,5,1,5,5,5,1,1,5,5,1,5,5,1,5,5,5,5,5,1,1,5,1,5,5,5,
1,0,0,5,5,1,1,1,5,0,0,0,5,0,0,0,5,0,1,0,0,0,0,0,0,0,0,0,0,5,0,0,5,5,0,5,0,1,0,5,0,1,0,5,
1,0,0,0,0,0,0,0,5,5,5,0,5,0,1,5,1,0,5,0,5,5,5,0,5,0,0,0,0,5,0,0,1,0,0,0,0,1,0,5,5,0,0,1,
5,0,5,5,1,1,5,0,0,0,0,0,0,0,0,0,1,0,1,0,1,0,1,0,5,5,5,5,0,5,0,5,5,0,5,0,0,0,0,0,0,0,0,1,
1,0,0,0,0,5,0,0,0,5,5,1,5,5,0,0,5,0,5,0,1,0,1,0,0,0,0,5,0,1,0,0,1,5,1,0,0,5,1,1,1,5,0,1,
1,0,0,5,0,5,0,0,5,0,0,0,0,5,1,5,5,0,0,0,1,0,1,0,5,0,1,0,0,1,0,0,0,0,5,0,0,5,0,0,0,5,0,5,
5,0,0,0,0,0,0,0,1,1,0,0,0,5,0,0,0,0,5,5,5,0,5,0,0,0,5,0,5,5,0,5,5,0,5,0,0,5,5,5,0,0,0,1,
1,0,0,5,1,5,5,0,1,1,5,0,0,1,0,5,0,5,0,0,0,0,5,0,5,0,1,0,0,0,0,0,5,0,0,5,0,0,0,1,0,0,0,5,
5,0,0,1,0,0,0,0,0,0,5,0,0,5,0,5,0,1,0,0,0,5,0,0,1,0,1,5,0,5,5,0,1,5,0,0,0,0,0,1,0,5,0,1,
5,0,0,1,0,5,5,1,1,5,1,0,5,1,0,1,0,5,0,5,0,5,1,1,5,0,1,0,0,5,5,0,1,1,1,5,0,5,1,1,0,5,5,1,
1,0,0,1,0,0,0,0,0,0,1,0,0,5,0,1,0,5,0,0,0,5,0,0,1,0,5,5,0,0,0,0,5,0,0,5,0,5,0,0,0,0,5,5,
5,0,5,5,5,1,5,1,1,0,1,0,5,1,0,5,0,1,0,5,5,0,0,5,5,1,5,0,0,5,1,0,5,0,0,5,0,0,5,0,5,0,0,1,
5,0,0,0,0,0,0,1,1,0,5,0,0,0,0,5,0,0,0,0,0,0,0,0,0,0,0,0,0,0,5,0,0,5,5,0,0,0,0,0,1,1,5,5,
1,5,5,1,1,1,1,5,1,0,5,0,0,5,5,1,1,1,0,5,1,1,5,0,0,0,0,0,0,0,1,0,0,5,0,0,0,0,5,1,5,0,0,1,
1,0,0,0,0,0,0,0,0,0,0,0,0,0,0,0,0,5,0,0,0,0,5,5,1,1,5,5,1,0,5,0,0,5,5,5,5,0,0,0,0,0,5,1,
1,5,5,5,0,5,1,1,1,1,5,0,5,5,0,0,0,5,5,5,0,0,0,0,0,0,0,0,1,0,1,0,0,0,0,0,1,0,5,0,1,0,0,1,
1,0,0,1,0,0,0,5,0,0,0,0,0,5,0,5,0,0,0,0,5,0,1,5,1,5,5,0,1,0,5,1,0,5,0,0,1,0,5,0,1,1,5,5,
1,0,0,5,0,0,0,5,0,5,0,5,0,1,0,5,1,5,5,0,1,0,1,0,0,0,1,0,1,0,5,5,1,1,5,0,1,0,0,0,0,0,0,1,
1,0,0,0,0,5,5,5,0,1,5,5,0,5,0,5,0,0,5,0,1,0,5,5,5,0,1,0,1,0,0,5,0,0,0,0,5,0,5,5,5,0,0,5,
5,0,0,1,0,0,0,5,0,1,0,1,0,1,0,1,0,0,1,0,1,0,0,1,0,0,1,0,1,0,0,0,0,0,5,5,5,0,5,0,0,0,5,5,
5,0,0,1,0,0,0,5,0,5,0,1,0,5,5,5,0,0,1,0,5,0,5,1,5,0,1,0,0,5,0,5,0,5,0,0,0,0,5,0,1,1,0,5,
1,0,1,1,1,1,1,1,0,1,5,1,0,0,0,0,0,0,1,0,1,0,0,1,0,0,5,0,0,5,0,5,0,0,5,1,1,1,5,0,5,5,0,1,
5,0,0,0,0,0,0,1,0,5,0,5,0,0,0,1,0,0,5,0,5,1,5,1,1,5,1,5,0,5,0,5,0,0,0,0,5,0,0,0,0,0,0,5,
5,0,0,0,0,0,0,1,0,0,0,0,0,0,0,1,0,0,5,0,0,0,0,0,0,0,0,0,0,5,0,0,1,0,0,0,0,0,0,0,0,0,0,5,
1,5,1,5,1,1,1,1,1,5,5,5,5,5,1,1,5,5,5,5,1,5,1,1,1,5,5,1,5,5,1,1,1,5,5,5,1,5,5,1,1,1,1,5
</data>
 </layer>
 <objectgroup id="4" name="object"/>
 <imagelayer id="2" name="ref" opacity="0.6" offsetx="0" offsety="800">
  <image source="../6.png" width="1401" height="785"/>
 </imagelayer>
</map>
